; generated by PrusaSlicer 2.7.4+win64 on 2024-07-16 at 17:58:05 UTC

; 

; external perimeters extrusion width = 0.45mm
; perimeters extrusion width = 0.45mm
; infill extrusion width = 0.45mm
; solid infill extrusion width = 0.45mm
; top infill extrusion width = 0.40mm
; first layer extrusion width = 0.70mm

M104 S200 ; set temperature
;TYPE:Custom
G28 ; home all axes
G1 Z5 F5000 ; lift nozzle
M109 S200 ; set temperature and wait for it to be reached
G21 ; set units to millimeters
G90 ; use absolute coordinates
M82 ; use absolute distances for extrusion
G92 E0
; Filament gcode
M107
;LAYER_CHANGE
;Z:0.35
;HEIGHT:0.35
G1 E-2 F2400
G1 Z.35 F7800
G1 X84.915 Y85.753
G1 E0 F2400
;TYPE:Skirt/Brim
;WIDTH:0.7
G1 F1800
G1 X86.668 Y84.274 E.20855
G1 X88.82 Y83.481 E.41709
G1 X90 Y83.375 E.52482
G1 X110 Y83.375 E2.34341
G1 X112.259 Y83.772 E2.55197
G1 X114.247 Y84.915 E2.76049
G1 X115.726 Y86.668 E2.96904
G1 X116.519 Y88.82 E3.17758
G1 X116.625 Y90 E3.28531
G1 X116.625 Y110 E5.1039
G1 X116.228 Y112.259 E5.31246
G1 X115.085 Y114.247 E5.52098
G1 X113.332 Y115.726 E5.72953
G1 X111.18 Y116.519 E5.93807
G1 X110 Y116.625 E6.0458
G1 X90 Y116.625 E7.86439
G1 X87.741 Y116.228 E8.07295
G1 X85.753 Y115.085 E8.28147
G1 X84.274 Y113.332 E8.49002
G1 X83.481 Y111.18 E8.69856
G1 X83.375 Y110 E8.80629
G1 X83.375 Y90 E10.62488
G1 X83.772 Y87.741 E10.83344
G1 X84.886 Y85.805 E11.03654
G1 E9.03654 F2400
G92 E0
G1 X84.886 Y85.805 F7800
G92 E0
G1 X108.4 Y108.4
G1 E2 F2400
;TYPE:Perimeter
;WIDTH:0.7
G1 F1800
G1 X91.6 Y108.4 E3.52762
G1 X91.6 Y91.6 E5.05524
G1 X108.4 Y91.6 E6.58286
G1 X108.4 Y100 E7.34667
G1 X108.4 Y108.34 E8.10502
G1 X108.4 Y108.34 F7800
G1 X109.025 Y109.025
G1 F1800
G1 X90.975 Y109.025 E9.7463
G1 X90.975 Y90.975 E11.38758
G1 X109.025 Y90.975 E13.02886
G1 X109.025 Y100 E13.8495
G1 X109.025 Y108.965 E14.66468
G1 X109.025 Y108.965 F7800
G1 X109.65 Y109.65
;TYPE:External perimeter
G1 F1800
G1 X90.35 Y109.65 E16.41962
G1 X90.35 Y90.35 E18.17456
G1 X109.65 Y90.35 E19.9295
G1 X109.65 Y100 E20.80697
G1 X109.65 Y109.59 E21.67898
G1 X109.254 Y109.649 F7800
G1 E19.67898 F2400
G92 E0
G1 X108.213 Y93.062 F7800
G1 E2 F2400
;TYPE:Solid infill
;WIDTH:0.705315
G1 F1800
G1 X107.22 Y92.068 E2.12884
G1 X106.328 Y92.068 E2.21064
G1 X107.932 Y93.672 E2.41866
G1 X107.932 Y94.563 E2.50037
G1 X105.437 Y92.068 E2.82394
G1 X104.546 Y92.068 E2.90565
G1 X107.932 Y95.454 E3.34477
G1 X107.932 Y96.345 E3.42648
G1 X103.655 Y92.068 E3.98115
G1 X102.763 Y92.068 E4.06295
G1 X107.932 Y97.237 E4.7333
G1 X107.932 Y98.128 E4.81501
G1 X101.872 Y92.068 E5.60092
G1 X100.981 Y92.068 E5.68263
G1 X107.932 Y99.019 E6.58409
G1 X107.932 Y99.91 E6.6658
G1 X100.09 Y92.068 E7.68281
G1 X99.198 Y92.068 E7.76461
G1 X107.932 Y100.802 E8.8973
G1 X107.932 Y101.693 E8.97901
G1 X98.307 Y92.068 E10.22725
G1 X97.416 Y92.068 E10.30896
G1 X107.932 Y102.584 E11.67275
G1 X107.932 Y103.475 E11.75446
G1 X96.525 Y92.068 E13.23381
G1 X95.633 Y92.068 E13.31561
G1 X107.932 Y104.367 E14.91064
G1 X107.932 Y105.258 E14.99235
G1 X94.742 Y92.068 E16.70293
G1 X93.851 Y92.068 E16.78464
G1 X107.932 Y106.149 E18.61077
G1 X107.932 Y107.04 E18.69248
G1 X92.96 Y92.068 E20.63416
G1 X92.068 Y92.068 E20.71596
G1 X107.931 Y107.932 E22.77326
G1 X107.04 Y107.932 E22.85497
G1 X92.068 Y92.96 E24.79665
G1 X92.068 Y93.851 E24.87836
G1 X106.149 Y107.932 E26.70449
G1 X105.258 Y107.932 E26.7862
G1 X92.068 Y94.742 E28.49678
G1 X92.068 Y95.633 E28.57849
G1 X104.367 Y107.932 E30.17352
G1 X103.475 Y107.932 E30.25532
G1 X92.068 Y96.525 E31.73467
G1 X92.068 Y97.416 E31.81638
G1 X102.584 Y107.932 E33.18017
G1 X101.693 Y107.932 E33.26188
G1 X92.068 Y98.307 E34.51012
G1 X92.068 Y99.198 E34.59183
G1 X100.802 Y107.932 E35.72452
G1 X99.91 Y107.932 E35.80632
G1 X92.068 Y100.09 E36.82333
G1 X92.068 Y100.981 E36.90504
G1 X99.019 Y107.932 E37.8065
G1 X98.128 Y107.932 E37.88821
G1 X92.068 Y101.872 E38.67412
G1 X92.068 Y102.763 E38.75583
G1 X97.237 Y107.932 E39.42618
G1 X96.345 Y107.932 E39.50798
G1 X92.068 Y103.655 E40.06265
G1 X92.068 Y104.546 E40.14436
G1 X95.454 Y107.932 E40.58348
G1 X94.563 Y107.932 E40.66519
G1 X92.068 Y105.437 E40.98876
G1 X92.068 Y106.328 E41.07047
G1 X93.672 Y107.932 E41.27849
G1 X92.78 Y107.932 E41.36029
G1 X91.787 Y106.938 E41.48913
;LAYER_CHANGE
;Z:0.75
;HEIGHT:0.4
G1 Z.75 F7800
G1 E39.48913 F2400
G92 E0
G1 X91.787 Y106.938 Z.75 F7800
G1 X109.047 Y109.047
G1 E2 F2400
G92 E0
;TYPE:Perimeter
;WIDTH:0.45
G1 F3600
G1 X90.953 Y109.047 E1.09577
G1 X90.953 Y90.953 E2.19154
G1 X109.047 Y90.953 E3.28731
G1 X109.047 Y100 E3.8352
G1 X109.047 Y108.987 E4.37945
G1 X109.047 Y108.987 F7800
G1 X109.411 Y109.411
G1 F3600
G1 X90.589 Y109.411 E5.51931
G1 X90.589 Y90.589 E6.65917
G1 X109.411 Y90.589 E7.79903
G1 X109.411 Y100 E8.36896
G1 X109.411 Y109.351 E8.93526
G1 X109.411 Y109.351 F7800
G1 X109.775 Y109.775
;TYPE:External perimeter
G1 F1800
G1 X90.225 Y109.775 E10.11921
G1 X90.225 Y90.225 E11.30316
G1 X109.775 Y90.225 E12.48711
G1 X109.775 Y100 E13.07908
G1 X109.775 Y109.715 E13.66742
G1 X109.379 Y109.774 F7800
G1 E11.66742 F2400
G92 E0
G1 X91.325 Y91.256 F7800
G1 E2 F2400
;TYPE:Solid infill
;WIDTH:0.538353
G1 F1200
G1 X91.285 Y91.216 E2.00426
G1 X91.231 Y91.231 E2.00848
G1 X91.216 Y91.285 E2.0127
G1 X91.256 Y91.325 E2.01696
G1 X91.311 Y91.311 E2.02123
;WIDTH:0.45
G1 X91.226 Y91.892 E2.05679
G1 X91.892 Y91.226 E2.11383
G1 X92.407 Y91.226 E2.14502
G1 X91.226 Y92.407 E2.24617
G1 X91.226 Y92.922 E2.27736
G1 X92.922 Y91.226 E2.42261
G1 X93.437 Y91.226 E2.4538
G1 X91.226 Y93.437 E2.64316
G1 X91.226 Y93.952 E2.67435
G1 X93.952 Y91.226 E2.90782
G1 X94.467 Y91.226 E2.93901
G1 X91.226 Y94.467 E3.21658
G1 X91.226 Y94.982 E3.24777
G1 X94.982 Y91.226 E3.56945
G1 X95.497 Y91.226 E3.60064
G1 X91.226 Y95.497 E3.96643
G1 X91.226 Y96.012 E3.99762
G1 X96.012 Y91.226 E4.40752
G1 X96.527 Y91.226 E4.43871
G1 X91.226 Y96.527 E4.89271
G1 X91.226 Y97.042 E4.9239
G1 X97.042 Y91.226 E5.42201
G1 X97.557 Y91.226 E5.4532
G1 X91.226 Y97.557 E5.99542
G1 X91.226 Y98.072 E6.02661
G1 X98.072 Y91.226 E6.61293
G1 X98.587 Y91.226 E6.64412
G1 X91.226 Y98.587 E7.27455
G1 X91.226 Y99.102 E7.30574
G1 X99.102 Y91.226 E7.98028
G1 X99.617 Y91.226 E8.01147
G1 X91.226 Y99.617 E8.73011
G1 X91.226 Y100.132 E8.7613
G1 X100.132 Y91.226 E9.52405
G1 X100.647 Y91.226 E9.55524
G1 X91.226 Y100.647 E10.3621
G1 X91.226 Y101.162 E10.39329
G1 X101.162 Y91.226 E11.24425
G1 X101.677 Y91.226 E11.27544
G1 X91.226 Y101.677 E12.17051
G1 X91.226 Y102.192 E12.2017
G1 X102.192 Y91.226 E13.14088
G1 X102.707 Y91.226 E13.17207
G1 X91.226 Y102.707 E14.15536
G1 X91.226 Y103.222 E14.18655
G1 X103.222 Y91.226 E15.21394
G1 X103.737 Y91.226 E15.24513
G1 X91.226 Y103.737 E16.31663
G1 X91.226 Y104.252 E16.34782
G1 X104.252 Y91.226 E17.46343
G1 X104.767 Y91.226 E17.49462
G1 X91.226 Y104.767 E18.65433
G1 X91.226 Y105.282 E18.68552
G1 X105.282 Y91.226 E19.88934
G1 X105.797 Y91.226 E19.92053
G1 X91.226 Y105.797 E21.16846
G1 X91.226 Y106.312 E21.19965
G1 X106.312 Y91.226 E22.49168
G1 X106.827 Y91.226 E22.52287
G1 X91.226 Y106.827 E23.85901
G1 X91.226 Y107.342 E23.8902
G1 X107.342 Y91.226 E25.27045
G1 X107.857 Y91.226 E25.30164
G1 X91.226 Y107.857 E26.726
G1 X91.226 Y108.372 E26.75719
G1 X108.372 Y91.226 E28.22565
G1 X108.918 Y91.112 E28.25943
;WIDTH:0.425841
G1 X108.847 Y91.093 E28.26359
G1 X108.866 Y91.164 E28.26775
G1 X108.907 Y91.153 E28.27015
;WIDTH:0.45
G1 X108.774 Y91.34 E28.28405
G1 X91.34 Y108.774 E29.77718
G1 X91.153 Y108.907 E29.79108
;WIDTH:0.425841
G1 X91.112 Y108.918 E29.79348
G1 X91.093 Y108.847 E29.79764
G1 X91.164 Y108.866 E29.8018
;WIDTH:0.45
G1 X91.855 Y108.774 E29.84402
G1 X108.774 Y91.855 E31.29304
G1 X108.774 Y92.37 E31.32423
G1 X92.37 Y108.774 E32.72914
G1 X92.885 Y108.774 E32.76033
G1 X108.774 Y92.885 E34.12114
G1 X108.774 Y93.4 E34.15233
G1 X93.4 Y108.774 E35.46903
G1 X93.915 Y108.774 E35.50022
G1 X108.774 Y93.915 E36.77281
G1 X108.774 Y94.43 E36.804
G1 X94.43 Y108.774 E38.03249
G1 X94.945 Y108.774 E38.06368
G1 X108.774 Y94.945 E39.24806
G1 X108.774 Y95.46 E39.27925
G1 X95.46 Y108.774 E40.41952
G1 X95.975 Y108.774 E40.45071
G1 X108.774 Y95.975 E41.54688
G1 X108.774 Y96.49 E41.57807
G1 X96.49 Y108.774 E42.63013
G1 X97.005 Y108.774 E42.66132
G1 X108.774 Y97.005 E43.66927
G1 X108.774 Y97.52 E43.70046
G1 X97.52 Y108.774 E44.6643
G1 X98.035 Y108.774 E44.69549
G1 X108.774 Y98.035 E45.61523
G1 X108.774 Y98.55 E45.64642
G1 X98.55 Y108.774 E46.52205
G1 X99.065 Y108.774 E46.55324
G1 X108.774 Y99.065 E47.38476
G1 X108.774 Y99.58 E47.41595
G1 X99.58 Y108.774 E48.20337
G1 X100.095 Y108.774 E48.23456
G1 X108.774 Y100.095 E48.97787
G1 X108.774 Y100.61 E49.00906
G1 X100.61 Y108.774 E49.70826
G1 X101.125 Y108.774 E49.73945
G1 X108.774 Y101.125 E50.39455
G1 X108.774 Y101.64 E50.42574
G1 X101.64 Y108.774 E51.03673
G1 X102.155 Y108.774 E51.06792
G1 X108.774 Y102.155 E51.6348
G1 X108.774 Y102.67 E51.66599
G1 X102.67 Y108.774 E52.18876
G1 X103.185 Y108.774 E52.21995
G1 X108.774 Y103.185 E52.69862
G1 X108.774 Y103.7 E52.72981
G1 X103.7 Y108.774 E53.16437
G1 X104.215 Y108.774 E53.19556
G1 X108.774 Y104.215 E53.58601
G1 X108.774 Y104.73 E53.6172
G1 X104.73 Y108.774 E53.96355
G1 X105.245 Y108.774 E53.99474
G1 X108.774 Y105.245 E54.29698
G1 X108.774 Y105.76 E54.32817
G1 X105.76 Y108.774 E54.5863
G1 X106.275 Y108.774 E54.61749
G1 X108.774 Y106.275 E54.83152
G1 X108.774 Y106.79 E54.86271
G1 X106.79 Y108.774 E55.03263
G1 X107.305 Y108.774 E55.06382
G1 X108.774 Y107.305 E55.18963
G1 X108.774 Y107.82 E55.22082
G1 X107.82 Y108.774 E55.30252
G1 X108.335 Y108.774 E55.33371
G1 X108.774 Y108.335 E55.37131
;LAYER_CHANGE
;Z:1.15
;HEIGHT:0.4
G1 Z1.15 F7800
G1 X109.047 Y109.047
G92 E0
;TYPE:Perimeter
G1 F3600
G1 X90.953 Y109.047 E1.09577
G1 X90.953 Y90.953 E2.19154
G1 X109.047 Y90.953 E3.28731
G1 X109.047 Y100 E3.8352
G1 X109.047 Y108.987 E4.37945
G1 X109.047 Y108.987 F7800
G1 X109.411 Y109.411
G1 F3600
G1 X90.589 Y109.411 E5.51931
G1 X90.589 Y90.589 E6.65917
G1 X109.411 Y90.589 E7.79903
G1 X109.411 Y100 E8.36896
G1 X109.411 Y109.351 E8.93526
G1 X109.411 Y109.351 F7800
G1 X109.775 Y109.775
;TYPE:External perimeter
G1 F1800
G1 X90.225 Y109.775 E10.11921
G1 X90.225 Y90.225 E11.30316
G1 X109.775 Y90.225 E12.48711
G1 X109.775 Y100 E13.07908
G1 X109.775 Y109.715 E13.66742
G1 X109.379 Y109.774 F7800
G1 E11.66742 F2400
G92 E0
G1 X91.256 Y108.675 F7800
G1 E2 F2400
;TYPE:Solid infill
;WIDTH:0.538353
G1 F1200
G1 X91.216 Y108.715 E2.00426
G1 X91.231 Y108.769 E2.00848
G1 X91.285 Y108.784 E2.0127
G1 X91.325 Y108.744 E2.01696
G1 X91.311 Y108.689 E2.02123
;WIDTH:0.45
G1 X91.226 Y108.108 E2.05679
G1 X91.892 Y108.774 E2.11383
G1 X92.407 Y108.774 E2.14502
G1 X91.226 Y107.593 E2.24617
G1 X91.226 Y107.078 E2.27736
G1 X92.922 Y108.774 E2.42261
G1 X93.437 Y108.774 E2.4538
G1 X91.226 Y106.563 E2.64316
G1 X91.226 Y106.048 E2.67435
G1 X93.952 Y108.774 E2.90782
G1 X94.467 Y108.774 E2.93901
G1 X91.226 Y105.533 E3.21658
G1 X91.226 Y105.018 E3.24777
G1 X94.982 Y108.774 E3.56945
G1 X95.497 Y108.774 E3.60064
G1 X91.226 Y104.503 E3.96643
G1 X91.226 Y103.988 E3.99762
G1 X96.012 Y108.774 E4.40752
G1 X96.527 Y108.774 E4.43871
G1 X91.226 Y103.473 E4.89271
G1 X91.226 Y102.958 E4.9239
G1 X97.042 Y108.774 E5.42201
G1 X97.557 Y108.774 E5.4532
G1 X91.226 Y102.443 E5.99542
G1 X91.226 Y101.928 E6.02661
G1 X98.072 Y108.774 E6.61293
G1 X98.587 Y108.774 E6.64412
G1 X91.226 Y101.413 E7.27455
G1 X91.226 Y100.898 E7.30574
G1 X99.102 Y108.774 E7.98028
G1 X99.617 Y108.774 E8.01147
G1 X91.226 Y100.383 E8.73011
G1 X91.226 Y99.868 E8.7613
G1 X100.132 Y108.774 E9.52405
G1 X100.647 Y108.774 E9.55524
G1 X91.226 Y99.353 E10.3621
G1 X91.226 Y98.838 E10.39329
G1 X101.162 Y108.774 E11.24425
G1 X101.677 Y108.774 E11.27544
G1 X91.226 Y98.323 E12.17051
G1 X91.226 Y97.808 E12.2017
G1 X102.192 Y108.774 E13.14088
G1 X102.707 Y108.774 E13.17207
G1 X91.226 Y97.293 E14.15536
G1 X91.226 Y96.778 E14.18655
G1 X103.222 Y108.774 E15.21394
G1 X103.737 Y108.774 E15.24513
G1 X91.226 Y96.263 E16.31663
G1 X91.226 Y95.748 E16.34782
G1 X104.252 Y108.774 E17.46343
G1 X104.767 Y108.774 E17.49462
G1 X91.226 Y95.233 E18.65433
G1 X91.226 Y94.718 E18.68552
G1 X105.282 Y108.774 E19.88934
G1 X105.797 Y108.774 E19.92053
G1 X91.226 Y94.203 E21.16846
G1 X91.226 Y93.688 E21.19965
G1 X106.312 Y108.774 E22.49168
G1 X106.827 Y108.774 E22.52287
G1 X91.226 Y93.173 E23.85901
G1 X91.226 Y92.658 E23.8902
G1 X107.342 Y108.774 E25.27045
G1 X107.857 Y108.774 E25.30164
G1 X91.226 Y92.143 E26.726
G1 X91.226 Y91.628 E26.75719
G1 X108.372 Y108.774 E28.22565
G1 X108.866 Y108.836 E28.2558
;WIDTH:0.425841
G1 X108.847 Y108.907 E28.25996
G1 X108.918 Y108.888 E28.26412
G1 X108.907 Y108.847 E28.26652
;WIDTH:0.45
G1 X108.774 Y108.66 E28.28042
G1 X91.34 Y91.226 E29.77355
G1 X91.153 Y91.093 E29.78745
;WIDTH:0.425841
G1 X91.164 Y91.134 E29.78985
G1 X91.093 Y91.153 E29.79401
G1 X91.112 Y91.082 E29.79817
G1 X91.112 Y91.082 F7800
G1 X91.855 Y91.226
;WIDTH:0.45
G1 F1200
G1 X108.774 Y108.145 E31.24719
G1 X108.774 Y107.63 E31.27838
G1 X92.37 Y91.226 E32.68329
G1 X92.885 Y91.226 E32.71448
G1 X108.774 Y107.115 E34.07529
G1 X108.774 Y106.6 E34.10648
G1 X93.4 Y91.226 E35.42318
G1 X93.915 Y91.226 E35.45437
G1 X108.774 Y106.085 E36.72696
G1 X108.774 Y105.57 E36.75815
G1 X94.43 Y91.226 E37.98664
G1 X94.945 Y91.226 E38.01783
G1 X108.774 Y105.055 E39.20221
G1 X108.774 Y104.54 E39.2334
G1 X95.46 Y91.226 E40.37367
G1 X95.975 Y91.226 E40.40486
G1 X108.774 Y104.025 E41.50103
G1 X108.774 Y103.51 E41.53222
G1 X96.49 Y91.226 E42.58428
G1 X97.005 Y91.226 E42.61547
G1 X108.774 Y102.995 E43.62342
G1 X108.774 Y102.48 E43.65461
G1 X97.52 Y91.226 E44.61845
G1 X98.035 Y91.226 E44.64964
G1 X108.774 Y101.965 E45.56938
G1 X108.774 Y101.45 E45.60057
G1 X98.55 Y91.226 E46.4762
G1 X99.065 Y91.226 E46.50739
G1 X108.774 Y100.935 E47.33891
G1 X108.774 Y100.42 E47.3701
G1 X99.58 Y91.226 E48.15752
G1 X100.095 Y91.226 E48.18871
G1 X108.774 Y99.905 E48.93202
G1 X108.774 Y99.39 E48.96321
G1 X100.61 Y91.226 E49.66241
G1 X101.125 Y91.226 E49.6936
G1 X108.774 Y98.875 E50.3487
G1 X108.774 Y98.36 E50.37989
G1 X101.64 Y91.226 E50.99088
G1 X102.155 Y91.226 E51.02207
G1 X108.774 Y97.845 E51.58895
G1 X108.774 Y97.33 E51.62014
G1 X102.67 Y91.226 E52.14291
G1 X103.185 Y91.226 E52.1741
G1 X108.774 Y96.815 E52.65277
G1 X108.774 Y96.3 E52.68396
G1 X103.7 Y91.226 E53.11852
G1 X104.215 Y91.226 E53.14971
G1 X108.774 Y95.785 E53.54016
G1 X108.774 Y95.27 E53.57135
G1 X104.73 Y91.226 E53.9177
G1 X105.245 Y91.226 E53.94889
G1 X108.774 Y94.755 E54.25113
G1 X108.774 Y94.24 E54.28232
G1 X105.76 Y91.226 E54.54045
G1 X106.275 Y91.226 E54.57164
G1 X108.774 Y93.725 E54.78567
G1 X108.774 Y93.21 E54.81686
G1 X106.79 Y91.226 E54.98678
G1 X107.305 Y91.226 E55.01797
G1 X108.774 Y92.695 E55.14378
G1 X108.774 Y92.18 E55.17497
G1 X107.82 Y91.226 E55.25667
G1 X108.335 Y91.226 E55.28786
G1 X108.774 Y91.665 E55.32546
M106 S244.8
;LAYER_CHANGE
;Z:1.55
;HEIGHT:0.4
G1 Z1.55 F7800
G1 E53.32546 F2400
G92 E0
G1 X108.774 Y91.665 Z1.55 F7800
G1 X109.047 Y109.047
G1 E2 F2400
G92 E0
;TYPE:Perimeter
G1 F3600
G1 X90.953 Y109.047 E1.09577
G1 X90.953 Y90.953 E2.19154
G1 X109.047 Y90.953 E3.28731
G1 X109.047 Y100 E3.8352
G1 X109.047 Y108.987 E4.37945
G1 X109.047 Y108.987 F7800
G1 X109.411 Y109.411
G1 F3600
G1 X90.589 Y109.411 E5.51931
G1 X90.589 Y90.589 E6.65917
G1 X109.411 Y90.589 E7.79903
G1 X109.411 Y100 E8.36896
G1 X109.411 Y109.351 E8.93526
G1 X109.411 Y109.351 F7800
G1 X109.775 Y109.775
;TYPE:External perimeter
G1 F1800
G1 X90.225 Y109.775 E10.11921
G1 X90.225 Y90.225 E11.30316
G1 X109.775 Y90.225 E12.48711
G1 X109.775 Y100 E13.07908
G1 X109.775 Y109.715 E13.66742
G1 X109.379 Y109.774 F7800
G1 E11.66742 F2400
G92 E0
G1 X108.774 Y103.947 F7800
G1 E2 F2400
;TYPE:Internal infill
;WIDTH:0.45
G1 F4800
G1 X108.774 Y106.132 E2.13232
G1 X98.914 Y108.774 E2.75051
G1 X97.649 Y108.774 E2.82712
G1 X102.351 Y91.226 E3.92731
G1 X101.086 Y91.226 E4.00392
G1 X91.226 Y93.868 E4.62211
G1 X91.226 Y91.226 E4.78211
G1 X108.774 Y108.774 E6.285
G1 X103.304 Y108.774 E6.61626
G1 X108.006 Y91.226 E7.71645
G1 X106.676 Y91.226 E7.79699
G1 X108.774 Y93.324 E7.97667
G1 X108.774 Y94.822 E8.06739
G1 X91.226 Y99.523 E9.16757
